images/3232997.svg

<?xml version="1.0" encoding="UTF-8"?>
<svg xmlns="http://www.w3.org/2000/svg" xmlns:xlink="http://www.w3.org/1999/xlink" width="300pt" height="300pt" viewBox="0 0 300 300" version="1.1">
<defs>
<g>
<symbol overflow="visible" id="glyph0-0">
<path style="stroke:none;" d="M 0.59375 2.125 L 0.59375 -8.46875 L 6.59375 -8.46875 L 6.59375 2.125 Z M 1.265625 1.453125 L 5.9375 1.453125 L 5.9375 -7.78125 L 1.265625 -7.78125 Z M 1.265625 1.453125 "/>
</symbol>
<symbol overflow="visible" id="glyph0-1">
<path style="stroke:none;" d="M 1.171875 -8.75 L 2.765625 -8.75 L 6.65625 -1.4375 L 6.65625 -8.75 L 7.796875 -8.75 L 7.796875 0 L 6.203125 0 L 2.328125 -7.3125 L 2.328125 0 L 1.171875 0 Z M 1.171875 -8.75 "/>
</symbol>
<symbol overflow="visible" id="glyph0-2">
<path style="stroke:none;" d="M 4.734375 -7.953125 C 3.867188 -7.953125 3.179688 -7.628906 2.671875 -6.984375 C 2.171875 -6.347656 1.921875 -5.472656 1.921875 -4.359375 C 1.921875 -3.265625 2.171875 -2.394531 2.671875 -1.75 C 3.179688 -1.113281 3.867188 -0.796875 4.734375 -0.796875 C 5.585938 -0.796875 6.265625 -1.113281 6.765625 -1.75 C 7.273438 -2.394531 7.53125 -3.265625 7.53125 -4.359375 C 7.53125 -5.472656 7.273438 -6.347656 6.765625 -6.984375 C 6.265625 -7.628906 5.585938 -7.953125 4.734375 -7.953125 Z M 4.734375 -8.90625 C 5.953125 -8.90625 6.925781 -8.492188 7.65625 -7.671875 C 8.394531 -6.847656 8.765625 -5.742188 8.765625 -4.359375 C 8.765625 -2.984375 8.394531 -1.882812 7.65625 -1.0625 C 6.925781 -0.238281 5.953125 0.171875 4.734375 0.171875 C 3.503906 0.171875 2.519531 -0.238281 1.78125 -1.0625 C 1.039062 -1.882812 0.671875 -2.984375 0.671875 -4.359375 C 0.671875 -5.742188 1.039062 -6.847656 1.78125 -7.671875 C 2.519531 -8.492188 3.503906 -8.90625 4.734375 -8.90625 Z M 4.734375 -8.90625 "/>
</symbol>
</g>
</defs>
<g id="surface42149">
<rect x="0" y="0" width="300" height="300" style="fill:rgb(100%,100%,100%);fill-opacity:1;stroke:none;"/>
<path style="fill:none;stroke-width:1.2;stroke-linecap:butt;stroke-linejoin:miter;stroke:rgb(0%,0%,0%);stroke-opacity:1;stroke-miterlimit:10;" d="M 264.265625 224.953125 L 257.214844 212.460938 "/>
<path style="fill:none;stroke-width:1.2;stroke-linecap:butt;stroke-linejoin:miter;stroke:rgb(0%,0%,100%);stroke-opacity:1;stroke-miterlimit:10;" d="M 257.214844 212.460938 L 250.164062 199.96875 "/>
<path style="fill:none;stroke-width:1.2;stroke-linecap:butt;stroke-linejoin:miter;stroke:rgb(0%,0%,100%);stroke-opacity:1;stroke-miterlimit:10;" d="M 250.164062 199.96875 L 257.457031 187.617188 "/>
<path style="fill:none;stroke-width:1.2;stroke-linecap:butt;stroke-linejoin:miter;stroke:rgb(0%,0%,0%);stroke-opacity:1;stroke-miterlimit:10;" d="M 257.457031 187.617188 L 264.75 175.265625 "/>
<path style="fill:none;stroke-width:1.2;stroke-linecap:butt;stroke-linejoin:miter;stroke:rgb(0%,0%,100%);stroke-opacity:1;stroke-miterlimit:10;" d="M 250.164062 199.96875 L 235.820312 199.828125 "/>
<path style="fill:none;stroke-width:1.2;stroke-linecap:butt;stroke-linejoin:miter;stroke:rgb(0%,0%,0%);stroke-opacity:1;stroke-miterlimit:10;" d="M 235.820312 199.828125 L 221.476562 199.6875 "/>
<path style=" stroke:none;fill-rule:nonzero;fill:rgb(100%,100%,100%);fill-opacity:1;" d="M 246.164062 192.96875 L 255.164062 192.96875 L 255.164062 206.96875 L 246.164062 206.96875 Z M 246.164062 192.96875 "/>
<g style="fill:rgb(0%,0%,100%);fill-opacity:1;">
  <use xlink:href="#glyph0-1" x="246.164062" y="204.107422"/>
</g>
<path style="fill:none;stroke-width:1.2;stroke-linecap:butt;stroke-linejoin:miter;stroke:rgb(0%,0%,0%);stroke-opacity:1;stroke-miterlimit:10;" d="M 221.476562 199.6875 L 214.183594 212.039062 "/>
<path style="fill:none;stroke-width:1.2;stroke-linecap:butt;stroke-linejoin:miter;stroke:rgb(0%,0%,100%);stroke-opacity:1;stroke-miterlimit:10;" d="M 214.183594 212.039062 L 206.890625 224.390625 "/>
<path style="fill:none;stroke-width:1.2;stroke-linecap:butt;stroke-linejoin:miter;stroke:rgb(0%,0%,0%);stroke-opacity:1;stroke-miterlimit:10;" d="M 214.203125 198.726562 L 208.371094 208.609375 "/>
<path style="fill:none;stroke-width:1.2;stroke-linecap:butt;stroke-linejoin:miter;stroke:rgb(0%,0%,100%);stroke-opacity:1;stroke-miterlimit:10;" d="M 208.371094 208.609375 L 202.535156 218.488281 "/>
<path style="fill:none;stroke-width:1.2;stroke-linecap:butt;stroke-linejoin:miter;stroke:rgb(0%,0%,100%);stroke-opacity:1;stroke-miterlimit:10;" d="M 207.375 174.703125 L 214.425781 187.195312 "/>
<path style="fill:none;stroke-width:1.2;stroke-linecap:butt;stroke-linejoin:miter;stroke:rgb(0%,0%,0%);stroke-opacity:1;stroke-miterlimit:10;" d="M 214.425781 187.195312 L 221.476562 199.6875 "/>
<path style="fill:none;stroke-width:1.2;stroke-linecap:butt;stroke-linejoin:miter;stroke:rgb(0%,0%,100%);stroke-opacity:1;stroke-miterlimit:10;" d="M 206.890625 224.390625 L 192.546875 224.253906 "/>
<path style="fill:none;stroke-width:1.2;stroke-linecap:butt;stroke-linejoin:miter;stroke:rgb(0%,0%,0%);stroke-opacity:1;stroke-miterlimit:10;" d="M 192.546875 224.253906 L 178.203125 224.113281 "/>
<path style=" stroke:none;fill-rule:nonzero;fill:rgb(100%,100%,100%);fill-opacity:1;" d="M 202.890625 217.390625 L 211.890625 217.390625 L 211.890625 231.390625 L 202.890625 231.390625 Z M 202.890625 217.390625 "/>
<g style="fill:rgb(0%,0%,100%);fill-opacity:1;">
  <use xlink:href="#glyph0-1" x="202.890625" y="228.529297"/>
</g>
<path style="fill:none;stroke-width:1.2;stroke-linecap:butt;stroke-linejoin:miter;stroke:rgb(0%,0%,0%);stroke-opacity:1;stroke-miterlimit:10;" d="M 178.203125 224.113281 L 164.101562 199.128906 "/>
<path style="fill:none;stroke-width:1.2;stroke-linecap:butt;stroke-linejoin:miter;stroke:rgb(0%,0%,0%);stroke-opacity:1;stroke-miterlimit:10;" d="M 182.671875 218.296875 L 171.390625 198.308594 "/>
<path style="fill:none;stroke-width:1.2;stroke-linecap:butt;stroke-linejoin:miter;stroke:rgb(0%,0%,0%);stroke-opacity:1;stroke-miterlimit:10;" d="M 164.101562 199.128906 L 178.6875 174.425781 "/>
<path style="fill:none;stroke-width:1.2;stroke-linecap:butt;stroke-linejoin:miter;stroke:rgb(0%,0%,100%);stroke-opacity:1;stroke-miterlimit:10;" d="M 135.414062 198.847656 L 149.757812 198.988281 "/>
<path style="fill:none;stroke-width:1.2;stroke-linecap:butt;stroke-linejoin:miter;stroke:rgb(0%,0%,0%);stroke-opacity:1;stroke-miterlimit:10;" d="M 149.757812 198.988281 L 164.101562 199.128906 "/>
<path style="fill:none;stroke-width:1.2;stroke-linecap:butt;stroke-linejoin:miter;stroke:rgb(0%,0%,0%);stroke-opacity:1;stroke-miterlimit:10;" d="M 178.6875 174.425781 L 193.03125 174.5625 "/>
<path style="fill:none;stroke-width:1.2;stroke-linecap:butt;stroke-linejoin:miter;stroke:rgb(0%,0%,100%);stroke-opacity:1;stroke-miterlimit:10;" d="M 193.03125 174.5625 L 207.375 174.703125 "/>
<path style="fill:none;stroke-width:1.2;stroke-linecap:butt;stroke-linejoin:miter;stroke:rgb(0%,0%,0%);stroke-opacity:1;stroke-miterlimit:10;" d="M 181.492188 181.203125 L 192.964844 181.3125 "/>
<path style="fill:none;stroke-width:1.2;stroke-linecap:butt;stroke-linejoin:miter;stroke:rgb(0%,0%,100%);stroke-opacity:1;stroke-miterlimit:10;" d="M 192.964844 181.3125 L 204.441406 181.425781 "/>
<path style="fill:none;stroke-width:1.2;stroke-linecap:butt;stroke-linejoin:miter;stroke:rgb(0%,0%,0%);stroke-opacity:1;stroke-miterlimit:10;" d="M 178.6875 174.425781 L 171.636719 161.933594 "/>
<path style="fill:none;stroke-width:1.2;stroke-linecap:butt;stroke-linejoin:miter;stroke:rgb(0%,0%,100%);stroke-opacity:1;stroke-miterlimit:10;" d="M 171.636719 161.933594 L 164.585938 149.441406 "/>
<path style=" stroke:none;fill-rule:nonzero;fill:rgb(100%,100%,100%);fill-opacity:1;" d="M 203.375 167.703125 L 212.375 167.703125 L 212.375 181.703125 L 203.375 181.703125 Z M 203.375 167.703125 "/>
<g style="fill:rgb(0%,0%,100%);fill-opacity:1;">
  <use xlink:href="#glyph0-1" x="203.375" y="178.841797"/>
</g>
<path style="fill:none;stroke-width:1.2;stroke-linecap:butt;stroke-linejoin:miter;stroke:rgb(0%,0%,100%);stroke-opacity:1;stroke-miterlimit:10;" d="M 164.585938 149.441406 L 150.242188 149.300781 "/>
<path style="fill:none;stroke-width:1.2;stroke-linecap:butt;stroke-linejoin:miter;stroke:rgb(0%,0%,0%);stroke-opacity:1;stroke-miterlimit:10;" d="M 150.242188 149.300781 L 135.898438 149.160156 "/>
<path style="fill:none;stroke-width:1.2;stroke-linecap:butt;stroke-linejoin:miter;stroke:rgb(0%,0%,100%);stroke-opacity:1;stroke-miterlimit:10;" d="M 164.585938 149.441406 L 171.878906 137.085938 "/>
<path style="fill:none;stroke-width:1.2;stroke-linecap:butt;stroke-linejoin:miter;stroke:rgb(0%,0%,0%);stroke-opacity:1;stroke-miterlimit:10;" d="M 171.878906 137.085938 L 179.171875 124.734375 "/>
<path style=" stroke:none;fill-rule:nonzero;fill:rgb(100%,100%,100%);fill-opacity:1;" d="M 160.585938 142.441406 L 169.585938 142.441406 L 169.585938 156.441406 L 160.585938 156.441406 Z M 160.585938 142.441406 "/>
<g style="fill:rgb(0%,0%,100%);fill-opacity:1;">
  <use xlink:href="#glyph0-1" x="160.585938" y="153.580078"/>
</g>
<path style="fill:none;stroke-width:1.2;stroke-linecap:butt;stroke-linejoin:miter;stroke:rgb(0%,0%,0%);stroke-opacity:1;stroke-miterlimit:10;" d="M 138.839844 147.5 L 131.789062 135.007812 "/>
<path style="fill:none;stroke-width:1.2;stroke-linecap:butt;stroke-linejoin:miter;stroke:rgb(100%,0%,0%);stroke-opacity:1;stroke-miterlimit:10;" d="M 131.789062 135.007812 L 124.738281 122.515625 "/>
<path style="fill:none;stroke-width:1.2;stroke-linecap:butt;stroke-linejoin:miter;stroke:rgb(0%,0%,0%);stroke-opacity:1;stroke-miterlimit:10;" d="M 132.960938 150.820312 L 125.910156 138.328125 "/>
<path style="fill:none;stroke-width:1.2;stroke-linecap:butt;stroke-linejoin:miter;stroke:rgb(100%,0%,0%);stroke-opacity:1;stroke-miterlimit:10;" d="M 125.910156 138.328125 L 118.859375 125.835938 "/>
<path style="fill:none;stroke-width:1.2;stroke-linecap:butt;stroke-linejoin:miter;stroke:rgb(0%,0%,0%);stroke-opacity:1;stroke-miterlimit:10;" d="M 135.898438 149.160156 L 121.3125 173.863281 "/>
<path style=" stroke:none;fill-rule:nonzero;fill:rgb(100%,100%,100%);fill-opacity:1;" d="M 111.796875 117.175781 L 121.796875 117.175781 L 121.796875 131.175781 L 111.796875 131.175781 Z M 111.796875 117.175781 "/>
<g style="fill:rgb(100%,0%,0%);fill-opacity:1;">
  <use xlink:href="#glyph0-2" x="111.796875" y="128.314453"/>
</g>
<path style="fill:none;stroke-width:1.2;stroke-linecap:butt;stroke-linejoin:miter;stroke:rgb(0%,0%,0%);stroke-opacity:1;stroke-miterlimit:10;" d="M 121.3125 173.863281 L 128.363281 186.355469 "/>
<path style="fill:none;stroke-width:1.2;stroke-linecap:butt;stroke-linejoin:miter;stroke:rgb(0%,0%,100%);stroke-opacity:1;stroke-miterlimit:10;" d="M 128.363281 186.355469 L 135.414062 198.847656 "/>
<path style="fill:none;stroke-width:1.2;stroke-linecap:butt;stroke-linejoin:miter;stroke:rgb(0%,0%,0%);stroke-opacity:1;stroke-miterlimit:10;" d="M 128.601562 173.042969 L 134.242188 183.039062 "/>
<path style="fill:none;stroke-width:1.2;stroke-linecap:butt;stroke-linejoin:miter;stroke:rgb(0%,0%,100%);stroke-opacity:1;stroke-miterlimit:10;" d="M 134.242188 183.039062 L 139.882812 193.03125 "/>
<path style="fill:none;stroke-width:1.2;stroke-linecap:butt;stroke-linejoin:miter;stroke:rgb(0%,0%,0%);stroke-opacity:1;stroke-miterlimit:10;" d="M 121.3125 173.863281 L 92.625 173.582031 "/>
<path style=" stroke:none;fill-rule:nonzero;fill:rgb(100%,100%,100%);fill-opacity:1;" d="M 131.414062 191.847656 L 140.414062 191.847656 L 140.414062 205.847656 L 131.414062 205.847656 Z M 131.414062 191.847656 "/>
<g style="fill:rgb(0%,0%,100%);fill-opacity:1;">
  <use xlink:href="#glyph0-1" x="131.414062" y="202.986328"/>
</g>
<path style="fill:none;stroke-width:1.2;stroke-linecap:butt;stroke-linejoin:miter;stroke:rgb(0%,0%,0%);stroke-opacity:1;stroke-miterlimit:10;" d="M 92.625 173.582031 L 78.523438 148.597656 "/>
<path style="fill:none;stroke-width:1.2;stroke-linecap:butt;stroke-linejoin:miter;stroke:rgb(0%,0%,0%);stroke-opacity:1;stroke-miterlimit:10;" d="M 85.335938 174.402344 L 74.054688 154.414062 "/>
<path style="fill:none;stroke-width:1.2;stroke-linecap:butt;stroke-linejoin:miter;stroke:rgb(0%,0%,0%);stroke-opacity:1;stroke-miterlimit:10;" d="M 78.039062 198.289062 L 92.625 173.582031 "/>
<path style="fill:none;stroke-width:1.2;stroke-linecap:butt;stroke-linejoin:miter;stroke:rgb(0%,0%,0%);stroke-opacity:1;stroke-miterlimit:10;" d="M 78.523438 148.597656 L 49.835938 148.320312 "/>
<path style="fill:none;stroke-width:1.2;stroke-linecap:butt;stroke-linejoin:miter;stroke:rgb(0%,0%,0%);stroke-opacity:1;stroke-miterlimit:10;" d="M 49.835938 148.320312 L 35.25 173.023438 "/>
<path style="fill:none;stroke-width:1.2;stroke-linecap:butt;stroke-linejoin:miter;stroke:rgb(0%,0%,0%);stroke-opacity:1;stroke-miterlimit:10;" d="M 54.191406 154.222656 L 42.519531 173.984375 "/>
<path style="fill:none;stroke-width:1.2;stroke-linecap:butt;stroke-linejoin:miter;stroke:rgb(0%,0%,0%);stroke-opacity:1;stroke-miterlimit:10;" d="M 35.25 173.023438 L 49.351562 198.007812 "/>
<path style="fill:none;stroke-width:1.2;stroke-linecap:butt;stroke-linejoin:miter;stroke:rgb(0%,0%,0%);stroke-opacity:1;stroke-miterlimit:10;" d="M 49.351562 198.007812 L 78.039062 198.289062 "/>
<path style="fill:none;stroke-width:1.2;stroke-linecap:butt;stroke-linejoin:miter;stroke:rgb(0%,0%,0%);stroke-opacity:1;stroke-miterlimit:10;" d="M 52.285156 191.285156 L 75.234375 191.507812 "/>
<path style="fill:none;stroke-width:1.2;stroke-linecap:butt;stroke-linejoin:miter;stroke:rgb(0%,0%,0%);stroke-opacity:1;stroke-miterlimit:10;" d="M 179.171875 124.734375 L 207.859375 125.015625 "/>
<path style="fill:none;stroke-width:1.2;stroke-linecap:butt;stroke-linejoin:miter;stroke:rgb(0%,0%,0%);stroke-opacity:1;stroke-miterlimit:10;" d="M 182.105469 118.015625 L 205.058594 118.238281 "/>
<path style="fill:none;stroke-width:1.2;stroke-linecap:butt;stroke-linejoin:miter;stroke:rgb(0%,0%,0%);stroke-opacity:1;stroke-miterlimit:10;" d="M 165.070312 99.75 L 179.171875 124.734375 "/>
<path style="fill:none;stroke-width:1.2;stroke-linecap:butt;stroke-linejoin:miter;stroke:rgb(0%,0%,0%);stroke-opacity:1;stroke-miterlimit:10;" d="M 207.859375 125.015625 L 222.445312 100.3125 "/>
<path style="fill:none;stroke-width:1.2;stroke-linecap:butt;stroke-linejoin:miter;stroke:rgb(0%,0%,0%);stroke-opacity:1;stroke-miterlimit:10;" d="M 222.445312 100.3125 L 208.34375 75.328125 "/>
<path style="fill:none;stroke-width:1.2;stroke-linecap:butt;stroke-linejoin:miter;stroke:rgb(0%,0%,0%);stroke-opacity:1;stroke-miterlimit:10;" d="M 215.15625 101.132812 L 203.875 81.144531 "/>
<path style="fill:none;stroke-width:1.2;stroke-linecap:butt;stroke-linejoin:miter;stroke:rgb(0%,0%,0%);stroke-opacity:1;stroke-miterlimit:10;" d="M 208.34375 75.328125 L 179.65625 75.046875 "/>
<path style="fill:none;stroke-width:1.2;stroke-linecap:butt;stroke-linejoin:miter;stroke:rgb(0%,0%,0%);stroke-opacity:1;stroke-miterlimit:10;" d="M 179.65625 75.046875 L 165.070312 99.75 "/>
<path style="fill:none;stroke-width:1.2;stroke-linecap:butt;stroke-linejoin:miter;stroke:rgb(0%,0%,0%);stroke-opacity:1;stroke-miterlimit:10;" d="M 184.011719 80.949219 L 172.34375 100.714844 "/>
</g>
</svg>

<svg xmlns="http://www.w3.org/2000/svg" xmlns:xlink="http://www.w3.org/1999/xlink" width="300pt" height="300pt" viewBox="0 0 300 300"><defs><symbol overflow="visible"><path d="M.594 2.125V-8.47h6V2.126zm.672-.672h4.671V-7.78h-4.67zm0 0"/></symbol><symbol overflow="visible" id="a"><path d="M1.172-8.75h1.594l3.89 7.313V-8.75h1.14V0H6.204L2.328-7.313V0H1.172zm0 0"/></symbol><symbol overflow="visible" id="b"><path d="M4.734-7.953c-.867 0-1.554.324-2.062.97-.5.635-.75 1.51-.75 2.624 0 1.094.25 1.965.75 2.61.508.637 1.195.953 2.062.953.852 0 1.532-.316 2.032-.953.507-.645.765-1.516.765-2.61 0-1.113-.257-1.988-.764-2.624-.5-.645-1.18-.97-2.032-.97zm0-.953c1.22 0 2.192.414 2.922 1.234.74.824 1.11 1.93 1.11 3.313 0 1.376-.37 2.477-1.11 3.298C6.926-.24 5.953.17 4.734.17c-1.23 0-2.214-.41-2.953-1.234C1.04-1.882.673-2.984.673-4.36c0-1.382.367-2.488 1.11-3.312.738-.82 1.722-1.234 2.952-1.234zm0 0"/></symbol></defs><g><path fill="#fff" d="M0 0h300v300H0z"/><path d="M264.266 224.953l-7.05-12.492" stroke-width="1.2" stroke="#000" stroke-miterlimit="10" fill="none"/><path d="M257.215 212.46l-7.05-12.49M250.164 199.97l7.293-12.353" stroke-width="1.2" stroke="#00f" stroke-miterlimit="10" fill="none"/><path d="M257.457 187.617l7.293-12.35" stroke-width="1.2" stroke="#000" stroke-miterlimit="10" fill="none"/><path d="M250.164 199.97l-14.344-.142" stroke-width="1.2" stroke="#00f" stroke-miterlimit="10" fill="none"/><path d="M235.82 199.828l-14.343-.14" stroke-width="1.2" stroke="#000" stroke-miterlimit="10" fill="none"/><path d="M246.164 192.97h9v14h-9zm0 0" fill="#fff"/><use xlink:href="#a" x="246.164" y="204.107" fill="#00f"/><path d="M221.477 199.688l-7.293 12.35" stroke-width="1.2" stroke="#000" stroke-miterlimit="10" fill="none"/><path d="M214.184 212.04l-7.293 12.35" stroke-width="1.2" stroke="#00f" stroke-miterlimit="10" fill="none"/><path d="M214.203 198.727l-5.832 9.882" stroke-width="1.2" stroke="#000" stroke-miterlimit="10" fill="none"/><path d="M208.37 208.61l-5.835 9.878M207.375 174.703l7.05 12.492" stroke-width="1.2" stroke="#00f" stroke-miterlimit="10" fill="none"/><path d="M214.426 187.195l7.05 12.493" stroke-width="1.2" stroke="#000" stroke-miterlimit="10" fill="none"/><path d="M206.89 224.39l-14.343-.136" stroke-width="1.2" stroke="#00f" stroke-miterlimit="10" fill="none"/><path d="M192.547 224.254l-14.344-.14" stroke-width="1.2" stroke="#000" stroke-miterlimit="10" fill="none"/><path d="M202.89 217.39h9v14h-9zm0 0" fill="#fff"/><use xlink:href="#a" x="202.891" y="228.529" fill="#00f"/><path d="M178.203 224.113l-14.1-24.984M182.672 218.297l-11.28-19.988M164.102 199.13l14.585-24.704" stroke-width="1.2" stroke="#000" stroke-miterlimit="10" fill="none"/><path d="M135.414 198.848l14.344.14" stroke-width="1.2" stroke="#00f" stroke-miterlimit="10" fill="none"/><path d="M149.758 198.988l14.344.14M178.688 174.426l14.343.137" stroke-width="1.2" stroke="#000" stroke-miterlimit="10" fill="none"/><path d="M193.03 174.563l14.345.14" stroke-width="1.2" stroke="#00f" stroke-miterlimit="10" fill="none"/><path d="M181.492 181.203l11.473.11" stroke-width="1.2" stroke="#000" stroke-miterlimit="10" fill="none"/><path d="M192.965 181.313l11.476.113" stroke-width="1.2" stroke="#00f" stroke-miterlimit="10" fill="none"/><path d="M178.688 174.426l-7.05-12.492" stroke-width="1.2" stroke="#000" stroke-miterlimit="10" fill="none"/><path d="M171.637 161.934l-7.05-12.493" stroke-width="1.2" stroke="#00f" stroke-miterlimit="10" fill="none"/><path d="M203.375 167.703h9v14h-9zm0 0" fill="#fff"/><use xlink:href="#a" x="203.375" y="178.842" fill="#00f"/><path d="M164.586 149.44l-14.344-.14" stroke-width="1.2" stroke="#00f" stroke-miterlimit="10" fill="none"/><path d="M150.242 149.3l-14.344-.14" stroke-width="1.2" stroke="#000" stroke-miterlimit="10" fill="none"/><path d="M164.586 149.44l7.293-12.354" stroke-width="1.2" stroke="#00f" stroke-miterlimit="10" fill="none"/><path d="M171.88 137.086l7.292-12.352" stroke-width="1.2" stroke="#000" stroke-miterlimit="10" fill="none"/><path d="M160.586 142.44h9v14h-9zm0 0" fill="#fff"/><use xlink:href="#a" x="160.586" y="153.58" fill="#00f"/><path d="M138.84 147.5l-7.05-12.492" stroke-width="1.2" stroke="#000" stroke-miterlimit="10" fill="none"/><path d="M131.79 135.008l-7.052-12.492" stroke-width="1.2" stroke="#f00" stroke-miterlimit="10" fill="none"/><path d="M132.96 150.82l-7.05-12.492" stroke-width="1.2" stroke="#000" stroke-miterlimit="10" fill="none"/><path d="M125.91 138.328l-7.05-12.492" stroke-width="1.2" stroke="#f00" stroke-miterlimit="10" fill="none"/><path d="M135.898 149.16l-14.585 24.703" stroke-width="1.2" stroke="#000" stroke-miterlimit="10" fill="none"/><path d="M111.797 117.176h10v14h-10zm0 0" fill="#fff"/><use xlink:href="#b" x="111.797" y="128.314" fill="#f00"/><path d="M121.313 173.863l7.05 12.492" stroke-width="1.2" stroke="#000" stroke-miterlimit="10" fill="none"/><path d="M128.363 186.355l7.05 12.493" stroke-width="1.2" stroke="#00f" stroke-miterlimit="10" fill="none"/><path d="M128.602 173.043l5.64 9.996" stroke-width="1.2" stroke="#000" stroke-miterlimit="10" fill="none"/><path d="M134.242 183.04l5.64 9.99" stroke-width="1.2" stroke="#00f" stroke-miterlimit="10" fill="none"/><path d="M121.313 173.863l-28.688-.28" stroke-width="1.2" stroke="#000" stroke-miterlimit="10" fill="none"/><path d="M131.414 191.848h9v14h-9zm0 0" fill="#fff"/><use xlink:href="#a" x="131.414" y="202.986" fill="#00f"/><path d="M92.625 173.582l-14.102-24.984M85.336 174.402l-11.28-19.988M78.04 198.29l14.585-24.708M78.523 148.598l-28.687-.278M49.836 148.32L35.25 173.023M54.19 154.223l-11.67 19.76M35.25 173.023l14.102 24.985M49.352 198.008l28.687.28M52.285 191.285l22.95.223M179.172 124.734l28.687.282M182.105 118.016l22.954.222M165.07 99.75l14.102 24.984M207.86 125.016l14.585-24.704M222.445 100.313l-14.1-24.985M215.156 101.133l-11.28-19.988M208.344 75.328l-28.688-.28M179.656 75.047L165.07 99.75M184.012 80.95l-11.668 19.765" stroke-width="1.2" stroke="#000" stroke-miterlimit="10" fill="none"/></g></svg>
